docs/img/zigmund.svg

<svg width="171" height="43" viewBox="0 0 171 43" fill="none" xmlns="http://www.w3.org/2000/svg">
<path d="M0 17.8459C0 13.1962 0 10.8714 0.594692 8.98525C1.8553 4.98709 4.98709 1.8553 8.98525 0.594691C10.8714 8.79957e-07 13.1962 7.15256e-07 17.8459 7.15256e-07C24.3554 7.15256e-07 27.6102 1.86817e-06 30.2507 0.83257C35.8481 2.59743 40.2327 6.98193 41.9975 12.5793C42.8301 15.2199 42.8301 18.4747 42.8301 24.9842C42.8301 29.6339 42.8301 31.9587 42.2354 33.8448C40.9748 37.843 37.843 40.9748 33.8448 42.2354C31.9587 42.8301 29.6339 42.8301 24.9842 42.8301C18.4747 42.8301 15.2199 42.8301 12.5793 41.9975C6.98193 40.2327 2.59743 35.8481 0.832568 30.2507C0 27.6102 0 24.3554 0 17.8459Z" fill="#0169ED"/>
<path d="M19.749 8.20026C23.4745 8.20026 25.3373 8.20026 26.1411 8.99567C26.6476 9.4969 26.9325 10.1734 26.9341 10.8789C26.9367 11.9985 25.6162 13.2863 22.9753 15.862L16.3508 22.3228C13.7259 24.8828 12.4135 26.1628 11.274 26.1565C10.5558 26.1526 9.86793 25.8723 9.35852 25.3761C8.55029 24.5887 8.55029 22.774 8.55029 19.1445V12.6838C8.55029 11.0025 8.55029 10.1618 8.92085 9.53654C9.15989 9.13315 9.50205 8.79777 9.9136 8.56346C10.5515 8.20026 11.4092 8.20026 13.1245 8.20026L19.749 8.20026Z" fill="white"/>
<path d="M23.4312 34.7068C19.7057 34.7068 17.8429 34.7068 17.0391 33.8925C16.5326 33.3793 16.2477 32.6867 16.2461 31.9644C16.2435 30.8182 17.564 29.4997 20.2049 26.8627L26.8294 20.2481C29.4543 17.6271 30.7667 16.3166 31.9062 16.323C32.6244 16.3271 33.3122 16.614 33.8217 17.122C34.6299 17.9281 34.6299 19.7861 34.6299 23.502V30.1166C34.6299 31.8379 34.6299 32.6985 34.2593 33.3387C34.0203 33.7517 33.6781 34.0951 33.2666 34.335C32.6286 34.7068 31.771 34.7068 30.0557 34.7068L23.4312 34.7068Z" fill="white"/>
<path d="M53.0234 16.1832L61.5053 6.21966H53.3504V3.93295H64.6528V5.97465L56.1709 15.9382H64.7345V18.2249H53.0234V16.1832Z" fill="#2A2A2A"/>
<path d="M69.228 3.93295H71.6806V18.2249H69.228V3.93295Z" fill="#2A2A2A"/>
<path d="M83.4498 18.5311C82.0872 18.5311 80.8609 18.2112 79.7709 17.5715C78.6808 16.9318 77.8224 16.047 77.1957 14.9173C76.5825 13.7875 76.2759 12.5149 76.2759 11.0993C76.2759 9.6565 76.5893 8.37023 77.2161 7.24048C77.8565 6.11074 78.7353 5.22601 79.8526 4.58627C80.9836 3.94654 82.2644 3.62667 83.695 3.62667C84.8941 3.62667 85.9773 3.85807 86.9447 4.32085C87.9121 4.77003 88.7024 5.41657 89.3156 6.26047C89.9423 7.09076 90.3511 8.05036 90.5419 9.13927H88.0075C87.7486 8.11842 87.2377 7.31535 86.4746 6.73006C85.7116 6.14477 84.7783 5.85213 83.6746 5.85213C82.7208 5.85213 81.8692 6.07672 81.1198 6.52589C80.384 6.97506 79.8049 7.60118 79.3826 8.40425C78.9738 9.19371 78.7694 10.0989 78.7694 11.1197C78.7694 12.1542 78.9806 13.0729 79.403 13.876C79.8254 14.6791 80.4113 15.3052 81.1607 15.7544C81.9237 16.2035 82.7821 16.4281 83.7359 16.4281C84.935 16.4281 85.9637 16.0879 86.8221 15.4073C87.6941 14.7131 88.246 13.808 88.4776 12.6918H83.8177V10.6501H90.644V18.2248H88.5593V16.1831C87.9871 16.9318 87.2649 17.5102 86.3929 17.9186C85.5345 18.3269 84.5534 18.5311 83.4498 18.5311Z" fill="#2A2A2A"/>
<path d="M95.7976 3.93295H99.8853L104.096 15.4073L108.285 3.93295H112.312V18.2249H109.92V5.9134L105.465 18.2249H102.644L98.1889 5.9134V18.2249H95.7976V3.93295Z" fill="#2A2A2A"/>
<path d="M123.654 18.5311C122.373 18.5311 121.249 18.2657 120.282 17.7348C119.314 17.1904 118.565 16.4281 118.034 15.4481C117.502 14.4681 117.237 13.3248 117.237 12.0181V3.93293H119.689V11.9772C119.689 13.3111 120.037 14.3592 120.731 15.1214C121.44 15.8701 122.414 16.2444 123.654 16.2444C124.894 16.2444 125.861 15.8701 126.556 15.1214C127.265 14.3592 127.619 13.3111 127.619 11.9772V3.93293H130.072V12.0181C130.072 13.3248 129.806 14.4681 129.275 15.4481C128.757 16.4281 128.014 17.1904 127.047 17.7348C126.079 18.2657 124.949 18.5311 123.654 18.5311Z" fill="#2A2A2A"/>
<path d="M134.997 3.93295H137.593L145.38 14.6927V3.93295H147.669V18.2249H145.094L137.348 7.44468V18.2249H134.997V3.93295Z" fill="#2A2A2A"/>
<path d="M157.282 3.93295C158.822 3.93295 160.185 4.2324 161.37 4.8313C162.556 5.41659 163.468 6.25368 164.109 7.34259C164.763 8.41789 165.09 9.66332 165.09 11.0789C165.09 12.4809 164.763 13.7263 164.109 14.8152C163.468 15.8905 162.556 16.7276 161.37 17.3265C160.185 17.9254 158.822 18.2249 157.282 18.2249H152.725V3.93295H157.282ZM157.282 15.9382C158.359 15.9382 159.299 15.7408 160.103 15.3461C160.907 14.9513 161.52 14.3865 161.942 13.6514C162.378 12.9164 162.596 12.0589 162.596 11.0789C162.596 10.0989 162.378 9.24137 161.942 8.50636C161.52 7.77135 160.907 7.20648 160.103 6.81175C159.299 6.41702 158.359 6.21966 157.282 6.21966H155.177V15.9382H157.282Z" fill="#2A2A2A"/>
<path d="M169.097 18.4086C168.661 18.4086 168.293 18.2589 167.993 17.9594C167.707 17.66 167.564 17.2925 167.564 16.8569C167.564 16.4213 167.714 16.0606 168.014 15.7748C168.313 15.4753 168.674 15.3256 169.097 15.3256C169.533 15.3256 169.894 15.4753 170.18 15.7748C170.48 16.0606 170.63 16.4213 170.63 16.8569C170.63 17.2925 170.48 17.66 170.18 17.9594C169.894 18.2589 169.533 18.4086 169.097 18.4086Z" fill="#2A2A2A"/>
<path d="M59.4434 39.8941C58.0399 39.8941 56.7659 39.5742 55.6214 38.9345C54.4905 38.2812 53.598 37.3896 52.944 36.2599C52.3036 35.1165 51.9834 33.8439 51.9834 32.4419C51.9834 31.0399 52.3036 29.7741 52.944 28.6443C53.598 27.501 54.4905 26.6094 55.6214 25.9697C56.7659 25.3164 58.0399 24.9897 59.4434 24.9897C60.8468 24.9897 62.114 25.3164 63.2449 25.9697C64.3894 26.6094 65.2819 27.501 65.9223 28.6443C66.5763 29.7741 66.9033 31.0399 66.9033 32.4419C66.9033 33.8439 66.5763 35.1165 65.9223 36.2599C65.2819 37.3896 64.3894 38.2812 63.2449 38.9345C62.114 39.5742 60.8468 39.8941 59.4434 39.8941ZM59.4434 37.6074C60.3835 37.6074 61.2283 37.3828 61.9777 36.9336C62.7407 36.4845 63.3403 35.872 63.7763 35.0961C64.2123 34.3066 64.4303 33.4219 64.4303 32.4419C64.4303 31.4619 64.2123 30.5839 63.7763 29.8081C63.3403 29.0186 62.7407 28.3993 61.9777 27.9501C61.2283 27.501 60.3835 27.2764 59.4434 27.2764C58.5032 27.2764 57.6516 27.501 56.8886 27.9501C56.1392 28.3993 55.5465 29.0186 55.1104 29.8081C54.6881 30.5839 54.4769 31.4619 54.4769 32.4419C54.4769 33.4219 54.6881 34.3066 55.1104 35.0961C55.5465 35.872 56.1392 36.4845 56.8886 36.9336C57.6516 37.3828 58.5032 37.6074 59.4434 37.6074Z" fill="#2A2A2A"/>
<path d="M71.4988 25.2959H74.0944L81.8814 36.0557V25.2959H84.1705V39.5878H81.5953L73.8492 28.8076V39.5878H71.4988V25.2959Z" fill="#2A2A2A"/>
<path d="M89.2262 25.2959H91.6788V37.2603H99.0365V39.5878H89.2262V25.2959Z" fill="#2A2A2A"/>
<path d="M102.894 25.2959H105.347V39.5878H102.894V25.2959Z" fill="#2A2A2A"/>
<path d="M110.403 25.2959H112.999L120.786 36.0557V25.2959H123.075V39.5878H120.5L112.754 28.8076V39.5878H110.403V25.2959Z" fill="#2A2A2A"/>
<path d="M128.13 25.2959H137.016V27.4601H130.542V31.3597H135.324V33.5239H130.542V37.4236H137.348V39.5878H128.13V25.2959Z" fill="#2A2A2A"/>
</svg>

<svg width="171" height="43" fill="none" xmlns="http://www.w3.org/2000/svg"><path d="M0 17.846c0-4.65 0-6.975.595-8.86A12.849 12.849 0 018.985.594C10.871 0 13.196 0 17.845 0c6.51 0 9.765 0 12.406.833a17.989 17.989 0 0111.747 11.746c.832 2.64.832 5.896.832 12.405 0 4.65 0 6.975-.595 8.86a12.849 12.849 0 01-8.39 8.391c-1.886.595-4.211.595-8.86.595-6.51 0-9.765 0-12.406-.832A17.989 17.989 0 01.833 30.25C0 27.61 0 24.355 0 17.846z" fill="#0169ED"/><path d="M19.749 8.2c3.726 0 5.588 0 6.392.796.507.5.792 1.177.793 1.883.003 1.12-1.318 2.407-3.959 4.983l-6.624 6.46c-2.625 2.56-3.937 3.84-5.077 3.835a2.767 2.767 0 01-1.915-.78c-.809-.788-.809-2.603-.809-6.232v-6.461c0-1.681 0-2.522.37-3.147.24-.404.582-.74.994-.974.638-.363 1.495-.363 3.21-.363h6.625zm3.682 26.507c-3.725 0-5.588 0-6.392-.815a2.754 2.754 0 01-.793-1.928c-.002-1.146 1.318-2.464 3.959-5.101l6.624-6.615c2.625-2.62 3.938-3.931 5.077-3.925a2.735 2.735 0 011.916.799c.808.806.808 2.664.808 6.38v6.615c0 1.72 0 2.582-.37 3.222a2.744 2.744 0 01-.993.996c-.638.372-1.496.372-3.211.372H23.43z" fill="#fff"/><path d="M53.023 16.183l8.482-9.963H53.35V3.933h11.303v2.042l-8.482 9.963h8.563v2.287h-11.71v-2.042zm16.205-12.25h2.453v14.292h-2.453V3.933zM83.45 18.531c-1.363 0-2.59-.32-3.68-.96a6.892 6.892 0 01-2.574-2.654c-.614-1.13-.92-2.402-.92-3.818 0-1.443.313-2.729.94-3.859a6.952 6.952 0 012.637-2.654c1.13-.64 2.411-.96 3.842-.96 1.2 0 2.282.232 3.25.695a6.003 6.003 0 012.37 1.94c.627.83 1.036 1.79 1.227 2.878h-2.535c-.258-1.02-.77-1.824-1.532-2.409-.763-.585-1.697-.878-2.8-.878-.954 0-1.806.225-2.555.674a4.726 4.726 0 00-1.737 1.878c-.41.79-.614 1.695-.614 2.716 0 1.034.212 1.953.634 2.756a4.68 4.68 0 001.758 1.878c.763.45 1.621.674 2.575.674 1.199 0 2.228-.34 3.086-1.02.872-.695 1.424-1.6 1.656-2.716h-4.66V10.65h6.826v7.575h-2.085v-2.042a5.754 5.754 0 01-2.166 1.736c-.859.408-1.84.612-2.943.612zM95.798 3.933h4.087l4.211 11.474 4.189-11.474h4.027v14.292h-2.392V5.913l-4.455 12.312h-2.821L98.189 5.913v12.312h-2.391V3.933zm27.856 14.598c-1.281 0-2.405-.265-3.372-.796a5.67 5.67 0 01-2.248-2.287c-.532-.98-.797-2.123-.797-3.43V3.933h2.452v8.044c0 1.334.348 2.382 1.042 3.144.709.75 1.683 1.123 2.923 1.123s2.207-.374 2.902-1.123c.709-.762 1.063-1.81 1.063-3.144V3.933h2.453v8.085c0 1.307-.266 2.45-.797 3.43a5.549 5.549 0 01-2.228 2.287c-.968.53-2.098.796-3.393.796zm11.343-14.598h2.596l7.787 10.76V3.933h2.289v14.292h-2.575l-7.746-10.78v10.78h-2.351V3.933zm22.285 0c1.54 0 2.903.3 4.088.898 1.186.586 2.098 1.423 2.739 2.512.654 1.075.981 2.32.981 3.736 0 1.402-.327 2.647-.981 3.736-.641 1.075-1.553 1.913-2.739 2.511-1.185.6-2.548.899-4.088.899h-4.557V3.933h4.557zm0 12.005c1.077 0 2.017-.197 2.821-.592.804-.395 1.417-.96 1.839-1.695.436-.735.654-1.592.654-2.572s-.218-1.838-.654-2.573c-.422-.735-1.035-1.3-1.839-1.694-.804-.395-1.744-.592-2.821-.592h-2.105v9.718h2.105zm11.815 2.471c-.436 0-.804-.15-1.104-.45a1.536 1.536 0 01-.429-1.102c0-.436.15-.796.45-1.082.299-.3.66-.45 1.083-.45.436 0 .797.15 1.083.45.3.286.45.646.45 1.082 0 .436-.15.803-.45 1.102-.286.3-.647.45-1.083.45zM59.443 39.894c-1.403 0-2.677-.32-3.822-.96a7.209 7.209 0 01-2.677-2.674c-.64-1.143-.96-2.416-.96-3.818 0-1.402.32-2.668.96-3.798a7.016 7.016 0 012.677-2.674c1.145-.654 2.419-.98 3.822-.98 1.404 0 2.671.326 3.802.98a6.833 6.833 0 012.677 2.674c.654 1.13.981 2.396.981 3.798 0 1.402-.327 2.675-.98 3.818a7.016 7.016 0 01-2.678 2.675c-1.131.64-2.398.96-3.802.96zm0-2.287c.94 0 1.785-.224 2.535-.673a4.854 4.854 0 001.798-1.838c.436-.79.654-1.674.654-2.654s-.218-1.858-.654-2.634a4.814 4.814 0 00-1.798-1.858c-.75-.449-1.595-.674-2.535-.674-.94 0-1.791.225-2.554.674a4.862 4.862 0 00-1.779 1.858c-.422.776-.633 1.654-.633 2.634s.211 1.865.633 2.654a4.902 4.902 0 001.779 1.838c.763.449 1.614.673 2.554.673zm12.056-12.311h2.595l7.787 10.76v-10.76h2.29v14.292h-2.576l-7.746-10.78v10.78H71.5V25.296zm17.727 0h2.453V37.26h7.358v2.328h-9.81V25.296zm13.668 0h2.453v14.292h-2.453V25.296zm7.509 0h2.596l7.787 10.76v-10.76h2.289v14.292H120.5l-7.746-10.78v10.78h-2.351V25.296zm17.727 0h8.886v2.164h-6.474v3.9h4.782v2.164h-4.782v3.9h6.806v2.164h-9.218V25.296z" fill="#2A2A2A"/></svg>
